packages/nouns-webapp/src/assets/wallet-brand-assets/fortmatic.svg

<svg xmlns="http://www.w3.org/2000/svg" width="40" height="40" viewBox="0 0 40 40" fill="none">
    <path fill-rule="evenodd" clip-rule="evenodd" d="M17.9399 0.896484H26.9099H35.8799V10.0963H26.9099H17.9399H8.96996V19.2961V19.886V28.4424V28.496V37.6422H0V28.496V28.4424V19.886V19.2961V10.0963V0.896484H8.96996H17.9399ZM26.9105 28.4452H17.9928V19.299H35.8752V28.767C35.8752 31.1207 34.9639 33.378 33.3417 35.0428C31.7195 36.7076 29.5191 37.6436 27.2242 37.6451H26.9105V28.4452Z" fill="#6851FF"/>
</svg>

<svg xmlns="http://www.w3.org/2000/svg" width="40" height="40" fill="none">
    <path fill="#6851FF" fill-rule="evenodd" d="M17.94.896h17.94v9.2H8.97v27.546H0V.896zm8.97 27.55h-8.917v-9.147h17.882v9.468a9 9 0 0 1-2.533 6.276 8.55 8.55 0 0 1-6.118 2.602h-.314z" clip-rule="evenodd"/>
</svg>
